X:94
T:RVW2/2/94 A Sailor In The North Countree
C:Mrs. Verrall, Horsham, Susses, 24 May 1904
L:1/8
Q:1/4=110
M:4/4
I:linebreak $
K:F
"^(" d2 | dBAG d2 G2 | G6 G2 | c2 de f2 ge | d6 d2 |$ ddef g2 fe | dcdG F2 DD | (GA)Bc ddGF | G6 |] 
w: A|sai- lor in the north coun-|tree he|had a most beau- ti- ful|wife. Her|cou- rage was so neat and her|tem- per more than sweet and the|sai- * lor he loved her as his|life.|



